X:1
T: Bonny Highland Hills
C:
R:Strathspey
Q:128
K:Em
M:4/4
L:1/16
|:g2|BB3 B3A Gg3 B3g|a3A B3G E2e2 e3f|g3a b3a gd3 g3e|d3A B3G Ee3 e2g2|
BB3 B3A Gg3 B3g|a3A B3G E2e2 e3f|g3a b3a gd3 g3e|d3A B3G Ee3 e2f2|
g3a b3a gb3 b3g|a3g b3g a3g e4|db3 b3a g3d B4|d3A B3G Ee3 e3f|
g3a b3a gb3 b3g|a3g b3g a3g e4|db3 gb3 eg3 B4|d3A B3G Ee3 e2:|
